!!!!SEGMENT: pl-kk--kk-i-7--018_anonim--ave-maria.krn
!!!id: 16xx:808
!!!COM: Anonim
!!!COM-rism: pe30004985
!!!CDT:
!!!CNT:
!!!OTL: Ave Maria
!!!PDT:
!!!SMS-siglum: PL-Kk
!!!SMS-shelfmark: Kk.I.7
!!!NIFC-rismID: 300258095
!!!URL-scan: http://repozytorium.nifc.pl/skany/pl-kk-nut--i-7
!!!ONB-nifc: UWAGA: C (skan 0013, s.20-21), A (0100, s.20-21), T(0176, s.16-17), B(0265, s.21). Następny utwór: Sanctus
!!!SMS-variant:
!!!SMS-altvar:
**kern	**text	**text	**kern	**text	**text	**kern	**text	**text	**kern	**text	**text
*part4	*part4	*part4	*part3	*part3	*part3	*part2	*part2	*part2	*part1	*part1	*part1
*staff4	*staff4	*staff4	*staff3	*staff3	*staff3	*staff2	*staff2	*staff2	*staff1	*staff1	*staff1
*I"[BASSVS.]	*	*	*I"[TENOR.]	*	*	*I"[ALTVS.]	*	*	*I"[CANTVS.]	*	*
*I'[B]	*	*	*I'[T II]	*	*	*I'[T I]	*	*	*I'[A]	*	*
*clefF4	*	*	*clefC4	*	*	*clefC4	*	*	*clefC3	*	*
*k[]	*	*	*k[]	*	*	*k[]	*	*	*k[]	*	*
*M2/1	*	*	*M2/1	*	*	*M2/1	*	*	*M2/1	*	*
*met(C|)	*	*	*met(C|)	*	*	*met(C|)	*	*	*met(C|)	*	*
=1-	=1-	=1-	=1-	=1-	=1-	=1-	=1-	=1-	=1-	=1-	=1-
!LO:TX:t=P:problem:oznaczenie menzuralne C|	!	!	!	!	!	!LO:TX:t=P:problem:kreska pseudotaktowa	!	!	!	!	!
*	*	*	*lig	*	*	*	*	*	*	*	*
!	!	!	!LO:TX:t=P:problem:oznaczenie menzuralne C|	!	!	!LO:TX:t=P:problem:oznaczenie menzuralne C|	!	!	!LO:TX:t=P:problem:oznaczenie menzuralne C|	!	!
2r	.	.	1F/	A-	.	0rA	.	.	0rc	.	.
1F\	A-	.	.	.	.	.	.	.	.	.	.
.	.	.	1G/	.	.	.	.	.	.	.	.
*2\right	*	*	*	*	*	*	*	*	*	*	*
!LO:TX:t=P:problem:kreska pseudotaktowa	!	!	!	!	!	!	!	!	!	!	!
2E\	.	.	.	.	.	.	.	.	.	.	.
!LO:TX:t=P:problem:all\right:global	!	!	!	!	!	!	!	!	!	!	!
*	*	*	*Xlig	*	*	*	*	*	*	*	*
=2-	=2-	=2-	=2-	=2-	=2-	=2-	=2-	=2-	=2-	=2-	=2-
*	*	*	*lig	*	*	*	*	*	*	*	*
!	!	!	!	!	!	!	!	!	!LO:TX:t=P:problem:kreska pseudotaktowa	!	!
2D/	.	.	1A\	.	.	2rF	.	.	1rc	.	.
2C/	.	.	.	.	.	1c\	A-	.	.	.	.
!LO:TX:t=P:problem:kreska pseudotaktowa	!	!	!	!	!	!	!	!	!	!	!
1D\	-ve	.	1F/	.	.	.	.	.	2rA	.	.
*	*	*	*	*	*	*2\right	*	*	*	*	*
!	!	!	!	!	!	!LO:TX:t=P:problem:kreska pseudotaktowa	!	!	!	!	!
.	.	.	.	.	.	2B\	.	.	1f\	A-	.
!	!	!	!	!	!	!LO:TX:t=P:problem:all\right:global	!	!	!	!	!
*	*	*	*Xlig	*	*	*	*	*	*	*	*
=3-	=3-	=3-	=3-	=3-	=3-	=3-	=3-	=3-	=3-	=3-	=3-
*lig	*	*	*lig	*	*	*	*	*	*2\right	*	*
1C/	A-	.	1G/	.	.	1c\	-ve	.	.	.	.
!	!	!	!	!	!	!	!	!	!LO:TX:t=P:problem:all\right:global	!	!
.	.	.	.	.	.	.	.	.	2e\	.	.
*	*	*	*	*	*	*	*ij	*	*	*	*
1D\	.	.	1F/	.	.	0A\	A-	.	1d\	.	.
*Xlig	*	*	*Xlig	*	*	*	*	*	*	*	*
=4-	=4-	=4-	=4-	=4-	=4-	=4-	=4-	=4-	=4-	=4-	=4-
*	*	*	*lig	*	*	*	*	*	*	*	*
!	!	!	!	!	!	!	!	!	!LO:TX:t=P:problem:kreska pseudotaktowa	!	!
1AA/	-ve	.	1E/	.	.	.	.	.	1c\	.	.
4A\	.	.	1D/	.	.	0d\	.	.	2F/	-ve	.
4G\	.	.	.	.	.	.	.	.	.	.	.
4F\	A-	.	.	.	.	.	.	.	1f\	A-	.
!LO:TX:t=P:problem:kreska pseudotaktowa	!	!	!	!	!	!	!	!	!	!	!
4E\	.	.	.	.	.	.	.	.	.	.	.
*	*	*	*Xlig	*	*	*	*	*	*	*	*
=5-	=5-	=5-	=5-	=5-	=5-	=5-	=5-	=5-	=5-	=5-	=5-
*	*	*	*lig	*	*	*	*	*	*	*	*
1D\	.	.	1F/	.	.	.	.	.	.	.	.
.	.	.	.	.	.	.	.	.	4e\	.	.
!	!	!	!	!	!	!	!	!	!LO:TX:t=P:problem:kreska pseudotaktowa	!	!
.	.	.	.	.	.	.	.	.	4d\	.	.
!	!	!	!	!	!	!LO:TX:t=P:problem:kreska pseudotaktowa	!	!	!	!	!
2C/	-ve	.	1G/	.	.	1G/	-ve	.	4e\	.	.
.	.	.	.	.	.	.	.	.	4f\	.	.
!LO:TX:t=P:problem:kreska pseudotaktowa	!	!	!	!	!	!	!	!	!	!	!
2E\	Ma-	.	.	.	.	.	.	.	1g\	.	.
*	*	*	*Xlig	*	*	*	*Xij	*	*	*	*
=6-	=6-	=6-	=6-	=6-	=6-	=6-	=6-	=6-	=6-	=6-	=6-
1D\	-ri-	.	1A\	.	.	2rF	.	.	.	.	.
!	!	!	!	!	!	!	!	!	!LO:TX:t=P:problem:kreska pseudotaktowa	!	!
.	.	.	.	.	.	2d\	A-	.	2f\	.	.
!	!	!	!LO:TX:t=P:problem:kreska pseudotaktowa	!	!	!	!	!	!	!	!
2GG/	-a	.	1G/	-ve	.	2B\	-ve	.	1g\	.	.
2.C/	Ma-	.	.	.	.	1c\	Ma-	.	.	.	.
=7-	=7-	=7-	=7-	=7-	=7-	=7-	=7-	=7-	=7-	=7-	=7-
*	*	*	*lig	*	*	*	*	*	*	*	*
.	.	.	1G/	Ma-	.	.	.	.	2e\	-ve	.
4D\	.	.	.	.	.	.	.	.	.	.	.
!LO:TX:t=P:problem:kreska pseudotaktowa	!	!	!	!	!	!	!	!	!LO:TX:t=P:problem:kreska pseudotaktowa	!	!
2E\	.	.	.	.	.	4B\	.	.	2e\	Ma-	.
!	!	!	!	!	!	!LO:TX:t=P:problem:kreska pseudotaktowa	!	!	!	!	!
.	.	.	.	.	.	4c\	.	.	.	.	.
2.D/	.	.	1A\	.	.	2d\	.	.	2.f\	-ri-	.
!	!	!	!	!	!	!LO:TX:t=P:problem:kreska pseudotaktowa	!	!	!	!	!
!	!	!	!	!	!	!LO:SIC:v:t=custos E	!	!	!	!	!
.	.	.	.	.	.	2D/	.	.	.	.	.
8C/L	.	.	.	.	.	.	.	.	4g\	.	.
8BB/J	.	.	.	.	.	.	.	.	.	.	.
!	!	!	!	!	!	!LO:LB:g=original	!	!	!	!	!
*	*	*	*Xlig	*	*	*	*	*	*	*	*
=8-	=8-	=8-	=8-	=8-	=8-	=8-	=8-	=8-	=8-	=8-	=8-
*	*	*	*lig	*	*	*	*	*	*	*	*
!	!	!	!	!	!	!	!	!	!LO:TX:t=P:problem:kreska pseudotaktowa	!	!
1AA/	-ri-	.	1c\	.	.	2E/	-ri-	.	1a\	.	.
.	.	.	.	.	.	2F/	-a	.	.	.	.
!LO:TX:t=P:problem:kreska pseudotaktowa	!	!	!	!	!	!LO:TX:t=P:problem:kreska pseudotaktowa	!	!	!	!	!
1GG/	-a	.	1B\	.	.	1G/	.	.	2d\	.	.
.	.	.	.	.	.	.	.	.	1g\	.	.
*	*	*	*Xlig	*	*	*	*	*	*	*	*
=9-	=9-	=9-	=9-	=9-	=9-	=9-	=9-	=9-	=9-	=9-	=9-
*	*	*	*lig	*	*	*	*	*	*	*	*
!LO:TX:t=P:problem:kreska pseudotaktowa	!	!	!	!	!	!	!	!	!	!	!
1r	.	.	1c\	.	.	1r	.	.	.	.	.
!	!	!	!	!	!	!	!	!	!LO:TX:t=P:problem:kreska pseudotaktowa	!	!
.	.	.	.	.	.	.	.	.	2f\	.	.
*	*	*	*	*	*	*	*	*	*lig	*	*
1AA/	Ma-	.	1A\	.	.	2r	.	.	1e\	.	.
!	!	!	!	!	!	!LO:TX:t=P:problem:kreska pseudotaktowa	!	!	!	!	!
.	.	.	.	.	.	2c\	A-	.	.	.	.
*	*	*	*Xlig	*	*	*	*	*	*	*	*
=10-	=10-	=10-	=10-	=10-	=10-	=10-	=10-	=10-	=10-	=10-	=10-
*	*	*	*lig	*	*	*lig	*	*	*	*	*
!	!	!	!	!	!	!	!	!	!LO:TX:t=P:problem:kreska pseudotaktowa	!	!
1D\	-ri-	.	1F/	-ri-	.	1d\	-ve	.	1f\	.	.
*	*	*	*	*	*	*	*	*	*Xlig	*	*
!LO:TX:t=P:problem:kreska pseudotaktowa	!	!	!	!	!	!	!	!	!	!	!
!LO:SIC:v:t=custos C	!	!	!	!	!	!	!	!	!	!	!
1GG/	-a	.	1G/	.	.	1B\	.	.	2d\	-a	.
!	!	!	!	!	!	!	!	!	!LO:TX:t=P:problem:kreska pseudotaktowa	!	!
.	.	.	.	.	.	.	.	.	[y2g\	gra-	.
*	*	*	*Xlig	*	*	*Xlig	*	*	*	*	*
!LO:LB:g=original	!	!	!	!	!	!	!	!	!	!	!
=11-	=11-	=11-	=11-	=11-	=11-	=11-	=11-	=11-	=11-	=11-	=11-
!	!	!	!LO:TX:t=P:problem:kreska pseudotaktowa	!	!	!	!	!	!LO:N:xstem:cue	!	!
2.C/	gra-	.	1G/	-a	.	2.c\	Ma-	.	4g\]	.	.
.	.	.	.	.	.	.	.	.	4f\	.	.
.	.	.	.	.	.	.	.	.	4e\	.	.
!	!	!	!	!	!	!LO:TX:t=P:problem:kreska pseudotaktowa	!	!	!LO:TX:t=P:problem:kreska pseudotaktowa	!	!
4D/	.	.	.	.	.	4B\	.	.	4d\	.	.
*	*	*	*lig	*	*	*	*	*	*	*	*
2E\	.	.	1G/	gra-	.	2G/	.	.	4c\	.	.
!	!	!	!	!	!	!	!	!	!LO:SIC:v:t=custos e	!	!
.	.	.	.	.	.	.	.	.	4d\	.	.
!LO:TX:t=P:problem:kreska pseudotaktowa	!	!	!	!	!	!	!	!	!LO:PB:g=original	!	!
2C/	-ti-	.	.	.	.	2c\	-ri-	.	4e\	.	.
!	!	!	!	!	!	!	!	!	!LO:TX:t=P:problem:kreska pseudotaktowa	!	!
.	.	.	.	.	.	.	.	.	4c\	.	.
=12-	=12-	=12-	=12-	=12-	=12-	=12-	=12-	=12-	=12-	=12-	=12-
!	!	!	!	!	!	!LO:TX:t=P:problem:kreska pseudotaktowa	!	!	!	!	!
2.F\	-a	.	1D/	.	.	1A\	-a	.	4d\	.	.
.	.	.	.	.	.	.	.	.	4e\	.	.
.	.	.	.	.	.	.	.	.	2.f\	.	.
4E\	.	.	.	.	.	.	.	.	.	.	.
*	*	*	*Xlig	*	*	*	*	*	*	*	*
*	*	*	*lig	*	*	*	*	*	*	*	*
4D/	.	.	1F/	.	.	1r	.	.	.	.	.
4C/	.	.	.	.	.	.	.	.	4e\	.	.
!LO:TX:t=P:problem:kreska pseudotaktowa	!	!	!	!	!	!	!	!	!	!	!
2D/	.	.	.	.	.	.	.	.	1d\	.	.
=13-	=13-	=13-	=13-	=13-	=13-	=13-	=13-	=13-	=13-	=13-	=13-
1E\	ple-	.	1G/	.	.	2r	.	.	.	.	.
!	!	!	!	!	!	!LO:TX:t=P:problem:kreska pseudotaktowa	!	!	!LO:TX:t=P:problem:kreska pseudotaktowa	!	!
*	*	*	*	*	*	*	*ij	*	*	*	*
.	.	.	.	.	.	2e\	Ma-	.	2c/	-ti-	.
*	*	*	*Xlig	*	*	*	*	*	*	*	*
*	*	*	*lig	*	*	*	*	*	*	*	*
1D\	.	.	1A\	.	.	2f\	.	.	2d\	-a	.
.	.	.	.	.	.	1d\	.	.	2f\	.	.
=14-	=14-	=14-	=14-	=14-	=14-	=14-	=14-	=14-	=14-	=14-	=14-
1E\	.	.	1G/	.	.	.	.	.	4e\	.	.
.	.	.	.	.	.	.	.	.	4f\	.	.
!	!	!	!	!	!	!LO:TX:t=P:problem:kreska pseudotaktowa	!	!	!	!	!
.	.	.	.	.	.	2c\	-ri-	.	4g\	.	.
!	!	!	!	!	!	!	!	!	!LO:TX:t=P:problem:kreska pseudotaktowa	!	!
.	.	.	.	.	.	.	.	.	4e\	.	.
*	*	*	*Xlig	*	*	*	*	*	*	*	*
*	*	*	*lig	*	*	*	*	*	*	*	*
!LO:TX:t=P:problem:kreska pseudotaktowa	!	!	!	!	!	!	!	!	!	!	!
1D\	.	.	1F/	-ti-	.	2d\	-a	.	2f\	.	.
*	*	*	*	*	*	*	*Xij	*	*	*	*
!	!	!	!	!	!	!LO:TX:t=P:problem:kreska pseudotaktowa	!	!	!LO:TX:t=P:problem:kreska pseudotaktowa	!	!
.	.	.	.	.	.	2f\	gra-	.	2d\	.	.
=15-	=15-	=15-	=15-	=15-	=15-	=15-	=15-	=15-	=15-	=15-	=15-
!	!	!	!LO:SIC:v:t=custos G	!	!	!	!	!	!	!	!
2GG/	.	.	1G/	.	.	2d\	-ti-	.	1.g\	ple-	.
1C/	.	.	.	.	.	2.e\	-a	.	.	.	.
!	!	!	!LO:LB:g=original	!	!	!	!	!	!	!	!
*	*	*	*Xlig	*	*	*	*	*	*	*	*
!	!	!	!LO:TX:t=P:problem:kreska pseudotaktowa	!	!	!	!	!	!	!	!
.	.	.	1G/	-a	.	.	.	.	.	.	.
.	.	.	.	.	.	4d\	.	.	.	.	.
2D/	.	.	.	.	.	1d\	.	.	4f\	.	.
!	!	!	!	!	!	!	!	!	!LO:TX:t=P:problem:kreska pseudotaktowa	!	!
.	.	.	.	.	.	.	.	.	4e\	.	.
=16-	=16-	=16-	=16-	=16-	=16-	=16-	=16-	=16-	=16-	=16-	=16-
*	*	*	*lig	*	*	*	*	*	*	*	*
1E\	.	.	1G/	ple-	.	.	.	.	2e\	.	.
!	!	!	!	!	!	!LO:TX:t=P:problem:kreska pseudotaktowa	!	!	!	!	!
.	.	.	.	.	.	2c\	.	.	1g\	-na	.
!LO:TX:t=P:problem:kreska pseudotaktowa	!	!	!	!	!	!	!	!	!	!	!
1D\	-na	.	1A\	.	.	1d\	.	.	.	.	.
!	!	!	!	!	!	!	!	!	!LO:TX:t=P:problem:kreska pseudotaktowa	!	!
.	.	.	.	.	.	.	.	.	2f\	.	.
*	*	*	*Xlig	*	*	*	*	*	*	*	*
=17-	=17-	=17-	=17-	=17-	=17-	=17-	=17-	=17-	=17-	=17-	=17-
!	!	!	!	!	!	!	!	!	!LO:TX:t=P:problem:kreska pseudotaktowa	!	!
2r	.	.	1G/	.	.	1e\	ple-	.	1g\	.	.
!LO:TX:t=P:problem:kreska pseudotaktowa	!	!	!	!	!	!	!	!	!	!	!
2C/	Do-	.	.	.	.	.	.	.	.	.	.
!	!	!	!LO:TX:t=P:problem:kreska pseudotaktowa	!	!	!LO:TX:t=P:problem:kreska pseudotaktowa	!	!	!	!	!
2GG/	-mi-	.	1G/	-na	.	1d\	-na	.	2rA	.	.
!	!	!	!	!	!	!	!	!	!LO:TX:t=P:problem:kreska pseudotaktowa	!	!
2BB/	-n(us)	.	.	.	.	.	.	.	2g\	Do-	.
=18-	=18-	=18-	=18-	=18-	=18-	=18-	=18-	=18-	=18-	=18-	=18-
*	*	*	*lig	*	*	*	*	*	*	*	*
2.AA/	te-	.	1A\	Do-	.	2.c\	Do-	.	2e\	-mi-	.
!	!	!	!	!	!	!	!	!	!LO:TX:t=P:problem:kreska pseudotaktowa	!	!
.	.	.	.	.	.	.	.	.	2f\	-nus	.
!LO:TX:t=P:problem:kreska pseudotaktowa	!	!	!	!	!	!	!	!	!	!	!
4GG/	.	.	.	.	.	4B\	.	.	.	.	.
4AA/	.	.	1c\	.	.	4c\	.	.	0e\	te-	.
4BB/	.	.	.	.	.	4B\	.	.	.	.	.
4C/	.	.	.	.	.	1A\	.	.	.	.	.
4D/	.	.	.	.	.	.	.	.	.	.	.
*	*	*	*Xlig	*	*	*	*	*	*	*	*
=19-	=19-	=19-	=19-	=19-	=19-	=19-	=19-	=19-	=19-	=19-	=19-
*	*	*	*lig	*	*	*	*	*	*	*	*
1E\	-cum	.	1B\	.	.	.	.	.	.	.	.
!	!	!	!	!	!	!LO:TX:t=P:problem:kreska pseudotaktowa	!	!	!	!	!
.	.	.	.	.	.	2G/	-mi-	.	.	.	.
!LO:TX:t=P:problem:kreska pseudotaktowa	!	!	!	!	!	!	!	!	!	!	!
1AA/	.	.	1A\	.	.	2A/	-n(us)	.	4c/	.	.
.	.	.	.	.	.	.	.	.	4d\	.	.
!	!	!	!	!	!	!LO:SIC:v:t=custos B	!	!	!	!	!
.	.	.	.	.	.	2c\	Do-	.	4e\	.	.
!	!	!	!	!	!	!	!	!	!LO:TX:t=P:problem:kreska pseudotaktowa	!	!
.	.	.	.	.	.	.	.	.	4f\	.	.
*	*	*	*Xlig	*	*	*	*	*	*	*	*
!	!	!	!	!	!	!LO:LB:g=original	!	!	!	!	!
=20-	=20-	=20-	=20-	=20-	=20-	=20-	=20-	=20-	=20-	=20-	=20-
!LO:TX:t=P:problem:kreska pseudotaktowa	!	!	!	!	!	!	!	!	!	!	!
1rD	.	.	1d\	.	.	2B\	-mi-	.	2g\	.	.
.	.	.	.	.	.	2A/	-n(us)	.	2.a\	.	.
*lig	*ij	*	*lig	*	*	*	*	*	*	*	*
1C/	te-	.	1c\	.	.	1e\	te-	.	.	.	.
.	.	.	.	.	.	.	.	.	4g\	.	.
.	.	.	.	.	.	.	.	.	1g\	.	.
=21-	=21-	=21-	=21-	=21-	=21-	=21-	=21-	=21-	=21-	=21-	=21-
!	!	!	!	!	!	!LO:TX:t=P:problem:kreska pseudotaktowa	!	!	!	!	!
1D\	.	.	1A\	.	.	1d\	-cu(m)	.	.	.	.
!	!	!	!	!	!	!	!	!	!LO:TX:t=P:problem:kreska pseudotaktowa	!	!
.	.	.	.	.	.	.	.	.	2f\	.	.
*Xlig	*	*	*Xlig	*	*	*	*	*	*	*	*
*	*	*	*lig	*	*	*	*	*	*	*	*
!	!	!	!	!	!	!	!	!	!LO:TX:t=P:problem:kreska pseudotaktowa	!	!
!	!	!	!	!	!	!	!	!	!LO:SIC:v:t=custos e	!	!
2C/	.	.	1c\	.	.	1.e\	.	.	1g\	-cum	.
!LO:TX:t=P:problem:kreska pseudotaktowa	!	!	!	!	!	!	!	!	!	!	!
!LO:SIC:v:t=custos C	!	!	!	!	!	!	!	!	!	!	!
2C/	-cum	.	.	.	.	.	.	.	.	.	.
*	*Xij	*	*	*	*	*	*	*	*	*	*
!LO:LB:g=original	!	!	!	!	!	!	!	!	!LO:LB:g=original	!	!
=22-	=22-	=22-	=22-	=22-	=22-	=22-	=22-	=22-	=22-	=22-	=22-
4C/	Do-	.	1G/	.	.	.	.	.	2r	.	.
4D/	.	.	.	.	.	.	.	.	.	.	.
*	*	*	*	*	*	*	*ij	*	*	*ij	*
!LO:TX:t=P:problem:kreska pseudotaktowa	!	!	!	!	!	!	!	!	!LO:TX:t=P:problem:kreska pseudotaktowa	!	!
2E\	.	.	.	.	.	2c\	Do-	.	2e\	Do-	.
*	*	*	*Xlig	*	*	*	*	*	*	*	*
*	*	*	*lig	*	*	*	*	*	*	*	*
!LO:TX:t=P:problem:kreska pseudotaktowa	!	!	!	!	!	!	!	!	!	!	!
1D\	.	.	1F/	mi-	.	2.d\	.	.	2f\	.	.
!	!	!	!	!	!	!	!	!	!LO:TX:t=P:problem:kreska pseudotaktowa	!	!
.	.	.	.	.	.	.	.	.	2a\	.	.
!	!	!	!	!	!	!LO:TX:t=P:problem:kreska pseudotaktowa	!	!	!	!	!
.	.	.	.	.	.	4c\	.	.	.	.	.
=23-	=23-	=23-	=23-	=23-	=23-	=23-	=23-	=23-	=23-	=23-	=23-
2.E\	.	.	1G/	.	.	2B\	.	.	2.g\	.	.
.	.	.	.	.	.	1c\	.	.	.	.	.
!LO:TX:t=P:problem:kreska pseudotaktowa	!	!	!	!	!	!	!	!	!	!	!
4D/	.	.	.	.	.	.	.	.	4f\	.	.
*	*	*	*Xlig	*	*	*	*	*	*	*	*
!	!	!	!LO:TX:t=P:problem:kreska pseudotaktowa	!	!	!	!	!	!	!	!
2C/	-mi-	.	1G/	-nus	.	.	.	.	2e\	.	.
!LO:TX:t=P:problem:kreska pseudotaktowa	!	!	!	!	!	!LO:TX:t=P:problem:kreska pseudotaktowa	!	!	!	!	!
2BB/	-n(us)	.	.	.	.	2d\	-mi-	.	1d\	-mi-	.
=24-	=24-	=24-	=24-	=24-	=24-	=24-	=24-	=24-	=24-	=24-	=24-
*	*	*	*lig	*	*	*	*	*	*	*	*
1E\	te-	.	1G/	te-	.	1e\	-nus	.	.	.	.
!	!	!	!	!	!	!	!	!	!LO:TX:t=P:problem:kreska pseudotaktowa	!	!
.	.	.	.	.	.	.	.	.	2c/	-nus	.
!LO:TX:t=P:problem:kreska pseudotaktowa	!	!	!	!	!	!	!	!	!	!	!
1D\	-cu(m)	.	1A\	.	.	2A/	te-	.	2d/	te-	.
.	.	.	.	.	.	2d\	.	.	1f\	.	.
*	*	*	*Xlig	*	*	*	*	*	*	*	*
=25-	=25-	=25-	=25-	=25-	=25-	=25-	=25-	=25-	=25-	=25-	=25-
!LO:TX:t=P:problem:kreska pseudotaktowa	!	!	!	!	!	!LO:TX:t=P:problem:kreska pseudotaktowa	!	!	!	!	!
1rD	.	.	1G/	.	.	1d\	-cum	.	.	.	.
*	*	*	*	*	*	*	*Xij	*	*	*	*
!	!	!	!	!	!	!	!	!	!LO:TX:t=P:problem:kreska pseudotaktowa	!	!
.	.	.	.	.	.	.	.	.	2e\	.	.
!	!	!	!LO:TX:t=P:problem:kreska pseudotaktowa	!	!	!	!	!	!	!	!
0GG/	be-	.	1G/	-cum	.	2.B\	Be-	.	2d\	-cum	.
*	*	*	*	*	*	*	*	*	*	*Xij	*
.	.	.	.	.	.	.	.	.	2.g\	Be-	.
.	.	.	.	.	.	4c\	.	.	.	.	.
=26-	=26-	=26-	=26-	=26-	=26-	=26-	=26-	=26-	=26-	=26-	=26-
.	.	.	1G/	be-	.	2d\	-ne-	.	.	.	.
.	.	.	.	.	.	.	.	.	4f\	.	.
.	.	.	.	.	.	4c\	-di-	.	4e\	.	.
!	!	!	!	!	!	!LO:TX:t=P:problem:kreska pseudotaktowa	!	!	!LO:TX:t=P:problem:kreska pseudotaktowa	!	!
.	.	.	.	.	.	4B\	.	.	4d\	.	.
0AA/	-ne-	.	1c\	-ne-	.	2A/	.	.	4c/	.	.
.	.	.	.	.	.	.	.	.	4A/	.	.
*	*	*	*	*	*	*lig	*	*	*	*	*
!	!	!	!	!	!	!	!	!	!LO:TX:t=P:problem:kreska pseudotaktowa	!	!
.	.	.	.	.	.	1E/	-cta	.	[y2a\	-ne-	.
=27-	=27-	=27-	=27-	=27-	=27-	=27-	=27-	=27-	=27-	=27-	=27-
*	*	*	*lig	*	*	*	*	*	*	*	*
!	!	!	!	!	!	!	!	!	!LO:N:xstem:cue	!	!
.	.	.	1c\	-di-	.	.	.	.	4a\]	.	.
.	.	.	.	.	.	.	.	.	4g\	.	.
!	!	!	!	!	!	!LO:TX:t=P:problem:kreska pseudotaktowa	!	!	!	!	!
.	.	.	.	.	.	1.F/	.	.	4f\	.	.
!	!	!	!	!	!	!	!	!	!LO:TX:t=P:problem:kreska pseudotaktowa	!	!
.	.	.	.	.	.	.	.	.	4e\	.	.
1D\	.	.	1d\	.	.	.	.	.	2d\	.	.
!	!	!	!	!	!	!	!	!	!LO:TX:t=P:problem:kreska pseudotaktowa	!	!
.	.	.	.	.	.	.	.	.	2f\	.	.
*	*	*	*Xlig	*	*	*Xlig	*	*	*	*	*
=28-	=28-	=28-	=28-	=28-	=28-	=28-	=28-	=28-	=28-	=28-	=28-
*	*	*	*lig	*	*	*	*	*	*	*	*
2.C/	-di-	.	1e\	.	.	1G/	tu	.	2e\	.	.
.	.	.	.	.	.	.	.	.	1c\	-di-	.
4BB/	.	.	.	.	.	.	.	.	.	.	.
*	*	*	*	*	*	*	*ij	*	*	*	*
1GG/	-cta	.	1d\	.	.	2.G/	Be-	.	.	.	.
!	!	!	!	!	!	!	!	!	!LO:TX:t=P:problem:kreska pseudotaktowa	!	!
.	.	.	.	.	.	.	.	.	2B/	-cta	.
!	!	!	!	!	!	!LO:TX:t=P:problem:kreska pseudotaktowa	!	!	!	!	!
.	.	.	.	.	.	4F/	.	.	.	.	.
*	*	*	*Xlig	*	*	*	*	*	*	*	*
=29-	=29-	=29-	=29-	=29-	=29-	=29-	=29-	=29-	=29-	=29-	=29-
*	*	*	*lig	*	*	*	*	*	*	*	*
1C/	.	.	1c\	-cta	.	4E/	-ne-	.	4c\	.	.
.	.	.	.	.	.	4C/	.	.	4d\	.	.
.	.	.	.	.	.	1c\	.	.	4e\	.	.
!	!	!	!	!	!	!	!	!	!LO:TX:t=P:problem:kreska pseudotaktowa	!	!
.	.	.	.	.	.	.	.	.	4f\	.	.
!LO:TX:t=P:problem:kreska pseudotaktowa	!	!	!LO:TX:t=P:problem:kreska pseudotaktowa	!	!	!	!	!	!	!	!
1GG/	tu	.	1d\	.	.	.	.	.	1g\	.	.
!	!	!	!	!	!	!LO:TX:t=P:problem:kreska pseudotaktowa	!	!	!	!	!
.	.	.	.	.	.	2B\	.	.	.	.	.
*	*	*	*Xlig	*	*	*	*	*	*	*	*
=30-	=30-	=30-	=30-	=30-	=30-	=30-	=30-	=30-	=30-	=30-	=30-
0r	.	.	1c\	tu	.	2c\	-di-	.	2e\	.	.
!	!	!	!	!	!	!	!	!	!LO:TX:t=P:problem:kreska pseudotaktowa	!	!
.	.	.	.	.	.	2A/	cta	.	[y2a\	.	.
*	*	*	*lig	*	*	*	*	*	*	*	*
!	!	!	!	!	!	!LO:TX:t=P:problem:kreska pseudotaktowa	!	!	!LO:N:xstem:cue	!	!
.	.	.	1c\	.	.	1A\	tu	.	4a\]	.	.
.	.	.	.	.	.	.	.	.	4g\	.	.
.	.	.	.	.	.	.	.	.	1f\	.	.
=31-	=31-	=31-	=31-	=31-	=31-	=31-	=31-	=31-	=31-	=31-	=31-
!	!	!	!LO:SIC:v:t=custos c	!	!	!	!	!	!	!	!
2r	.	.	1B\	.	.	2r	.	.	.	.	.
!	!	!	!	!	!	!	!	!	!LO:TX:t=P:problem:kreska pseudotaktowa	!	!
!LO:TX:t=P:problem:kreska pseudotaktowa	!	!	!	!	!	!	!	!	!LO:SIC:v:t=custos f	!	!
2G\	in	.	.	.	.	2B\	Be-	.	2e\	.	.
!	!	!	!LO:PB:g=original	!	!	!	!	!	!LO:LB:g=original	!	!
*	*	*	*Xlig	*	*	*	*	*	*	*	*
*	*	*	*lig	*	*	*	*	*	*	*	*
2A\	mu-	.	1c\	.	.	1A\	-ne-	.	0f\	tu	.
2F\	-li-	.	.	.	.	.	.	.	.	.	.
=32-	=32-	=32-	=32-	=32-	=32-	=32-	=32-	=32-	=32-	=32-	=32-
2.D/	-e-	.	1d\	.	.	2A/	-di-	.	.	.	.
!	!	!	!	!	!	!LO:TX:t=P:problem:kreska pseudotaktowa	!	!	!	!	!
!	!	!	!	!	!	!LO:SIC:v:t=custos c	!	!	!	!	!
.	.	.	.	.	.	2d\	-cta	.	.	.	.
!LO:TX:t=P:problem:kreska pseudotaktowa	!	!	!	!	!	!	!	!	!	!	!
4C/	.	.	.	.	.	.	.	.	.	.	.
!	!	!	!	!	!	!LO:LB:g=original	!	!	!	!	!
*	*	*	*Xlig	*	*	*	*	*	*	*	*
*	*	*	*lig	*	*	*	*	*	*	*	*
4D/	.	.	1A\	.	.	1c\	tu	.	2r	.	.
4E\	.	.	.	.	.	.	.	.	.	.	.
1F\	.	.	.	.	.	.	.	.	2c/	in	.
=33-	=33-	=33-	=33-	=33-	=33-	=33-	=33-	=33-	=33-	=33-	=33-
!	!	!	!LO:TX:t=P:problem:kreska pseudotaktowa	!	!	!	!	!	!	!	!
.	.	.	1G/	.	.	2r	.	.	2d\	mu-	.
*	*	*	*	*	*	*	*Xij	*	*	*	*
!LO:TX:t=P:problem:kreska pseudotaktowa	!	!	!	!	!	!LO:TX:t=P:problem:kreska pseudotaktowa	!	!	!LO:TX:t=P:problem:kreska pseudotaktowa	!	!
2E\	.	.	.	.	.	2C/	in	.	2e\	-li-	.
*	*	*	*Xlig	*	*	*	*	*	*	*	*
2D/	.	.	1A\	in	.	2D/	mu-	.	2f\	-e-	.
!	!	!	!	!	!	!	!	!	!LO:TX:t=P:problem:kreska pseudotaktowa	!	!
2C/	.	.	.	.	.	4E/	.	.	2e\	.	.
!	!	!	!	!	!	!LO:TX:t=P:problem:kreska pseudotaktowa	!	!	!	!	!
.	.	.	.	.	.	4F/	.	.	.	.	.
=34-	=34-	=34-	=34-	=34-	=34-	=34-	=34-	=34-	=34-	=34-	=34-
*	*	*	*lig	*	*	*	*	*	*	*	*
2BB/	.	.	1G/	mu-	.	4G/	.	.	2d\	.	.
.	.	.	.	.	.	4E/	.	.	.	.	.
!LO:TX:t=P:problem:kreska pseudotaktowa	!	!	!	!	!	!	!	!	!	!	!
2C/	.	.	.	.	.	1G/	.	.	1c\	.	.
!LO:SIC:v:t=custos GG	!	!	!	!	!	!	!	!	!	!	!
1AA/	-ri-	.	1c\	.	.	.	.	.	.	.	.
!	!	!	!	!	!	!LO:TX:t=P:problem:kreska pseudotaktowa	!	!	!	!	!
.	.	.	.	.	.	2F/	-li-	.	2A/	-ri-	.
*	*	*	*Xlig	*	*	*	*	*	*	*	*
!LO:LB:g=original	!	!	!	!	!	!	!	!	!	!	!
=35-	=35-	=35-	=35-	=35-	=35-	=35-	=35-	=35-	=35-	=35-	=35-
*	*	*	*lig	*	*	*	*	*	*	*	*
!LO:TX:t=P:problem:kreska pseudotaktowa	!	!	!	!	!	!	!	!	!LO:TX:t=P:problem:kreska pseudotaktowa	!	!
1GG/	-bus	.	1B\	.	.	1G/	-e-	.	1d\	-bus	.
1D\	in	.	1A\	.	.	2.F/	-ri-	.	2r	.	.
*	*	*	*	*	*	*	*	*	*	*ij	*
.	.	.	.	.	.	.	.	.	2f\	in	.
!	!	!	!	!	!	!LO:TX:t=P:problem:kreska pseudotaktowa	!	!	!	!	!
.	.	.	.	.	.	4G/	-bus	.	.	.	.
*	*	*	*Xlig	*	*	*	*	*	*	*	*
=36-	=36-	=36-	=36-	=36-	=36-	=36-	=36-	=36-	=36-	=36-	=36-
2.D/	mu-	.	1d\	-li-	.	1.A\	.	.	2f\	mu-	.
!	!	!	!	!	!	!	!	!	!LO:TX:t=P:problem:kreska pseudotaktowa	!	!
.	.	.	.	.	.	.	.	.	2f\	-li-	.
!LO:TX:t=P:problem:kreska pseudotaktowa	!	!	!	!	!	!	!	!	!	!	!
4C/	.	.	.	.	.	.	.	.	.	.	.
*	*	*	*lig	*	*	*	*	*	*	*	*
4AA/	.	.	1c\	-e-	.	.	.	.	2.e\	-e-	.
4BB/	.	.	.	.	.	.	.	.	.	.	.
*	*	*	*	*	*	*	*ij	*	*	*	*
2C/	.	.	.	.	.	1G/	in	.	.	.	.
.	.	.	.	.	.	.	.	.	4f\	.	.
=37-	=37-	=37-	=37-	=37-	=37-	=37-	=37-	=37-	=37-	=37-	=37-
1GG/	-li-	.	1B\	.	.	.	.	.	4g\	.	.
.	.	.	.	.	.	.	.	.	4f\	.	.
.	.	.	.	.	.	2G/	.	.	4e\	.	.
!	!	!	!	!	!	!	!	!	!LO:TX:t=P:problem:kreska pseudotaktowa	!	!
.	.	.	.	.	.	.	.	.	4d\	.	.
*	*	*	*Xlig	*	*	*	*	*	*	*	*
!LO:TX:t=P:problem:kreska pseudotaktowa	!	!	!	!	!	!	!	!	!	!	!
1AA/	-e-	.	1A\	.	.	1E/	mu-	.	4c/	.	.
.	.	.	.	.	.	.	.	.	4A/	.	.
.	.	.	.	.	.	.	.	.	1a\	.	.
=38-	=38-	=38-	=38-	=38-	=38-	=38-	=38-	=38-	=38-	=38-	=38-
*lig	*	*	*	*	*	*	*	*	*	*	*
1AA/	.	.	1c\	-ri-	.	2.E/	.	.	.	.	.
.	.	.	.	.	.	.	.	.	4g\	.	.
!	!	!	!	!	!	!	!	!	!LO:TX:t=P:problem:kreska pseudotaktowa	!	!
.	.	.	.	.	.	4D/	.	.	4f\	.	.
!	!	!	!LO:TX:t=P:problem:kreska pseudotaktowa	!	!	!	!	!	!	!	!
1.C/	.	.	1c\	-bus	.	4E/	-li-	.	2.e\	.	.
.	.	.	.	.	.	4F/	.	.	.	.	.
.	.	.	.	.	.	2G/	-e-	.	.	.	.
!	!	!	!	!	!	!	!	!	!LO:TX:t=P:problem:kreska pseudotaktowa	!	!
.	.	.	.	.	.	.	.	.	4d\	.	.
*Xlig	*	*	*	*	*	*	*	*	*	*	*
=39-	=39-	=39-	=39-	=39-	=39-	=39-	=39-	=39-	=39-	=39-	=39-
!	!	!	!LO:TX:t=P:problem:kreska pseudotaktowa	!	!	!	!	!	!	!	!
.	.	.	1G/	et	.	2C/	-ri-	.	4e\	.	.
.	.	.	.	.	.	.	.	.	4f\	.	.
!LO:TX:t=P:problem:kreska pseudotaktowa	!	!	!	!	!	!LO:TX:t=P:problem:kreska pseudotaktowa	!	!	!	!	!
2C/	-ri-	.	.	.	.	2c\	-bus	.	1g\	.	.
*	*	*	*	*	*	*	*Xij	*	*	*	*
2GG/	-b(us)	.	1B\	be-	.	2.d\	et	.	.	.	.
!	!	!	!	!	!	!	!	!	!LO:TX:t=P:problem:kreska pseudotaktowa	!	!
2G\	et	.	.	.	.	.	.	.	2g\	ri-	.
.	.	.	.	.	.	8c\L	be-	.	.	.	.
.	.	.	.	.	.	8B\J	.	.	.	.	.
=40-	=40-	=40-	=40-	=40-	=40-	=40-	=40-	=40-	=40-	=40-	=40-
2F\	be-	.	1c\	-ne-	.	2A/	.	.	2c/	-bus	.
*	*	*	*	*	*	*	*	*	*	*Xij	*
!	!	!	!	!	!	!LO:TX:t=P:problem:kreska pseudotaktowa	!	!	!	!	!
2E\	-ne-	.	.	.	.	2G/	.	.	2g\	et	.
1D\	-di-	.	1d\	.	.	2.A/	.	.	1f\	be-	.
.	.	.	.	.	.	4G/	.	.	.	.	.
=41-	=41-	=41-	=41-	=41-	=41-	=41-	=41-	=41-	=41-	=41-	=41-
!	!	!	!	!	!	!	!	!	!LO:TX:t=P:problem:kreska pseudotaktowa	!	!
!LO:TX:t=P:problem:kreska pseudotaktowa	!	!	!	!	!	!	!	!	!LO:SIC:v:t=custos f	!	!
1AA/	-ct(us)	.	1c\	.	.	4A/	.	.	1e\	-ne-	.
.	.	.	.	.	.	4B\	.	.	.	.	.
.	.	.	.	.	.	1c\	.	.	.	.	.
!	!	!	!	!	!	!	!	!	!LO:LB:g=original	!	!
*	*	*	*lig	*	*	*	*	*	*	*	*
0r	.	.	1A\	-di-	.	.	.	.	2.f\	.	.
!	!	!	!	!	!	!LO:TX:t=P:problem:kreska pseudotaktowa	!	!	!	!	!
.	.	.	.	.	.	2d\	.	.	.	.	.
!	!	!	!	!	!	!	!	!	!LO:TX:t=P:problem:kreska pseudotaktowa	!	!
.	.	.	.	.	.	.	.	.	4e\	.	.
=42-	=42-	=42-	=42-	=42-	=42-	=42-	=42-	=42-	=42-	=42-	=42-
.	.	.	1c\	.	.	1A\	-ne-	.	4f\	.	.
.	.	.	.	.	.	.	.	.	4g\	.	.
.	.	.	.	.	.	.	.	.	2a\	.	.
*	*	*	*Xlig	*	*	*	*	*	*	*	*
*	*	*	*lig	*	*	*	*	*	*	*	*
!LO:TX:t=P:problem:kreska pseudotaktowa	!	!	!	!	!	!	!	!	!	!	!
1r	.	.	1G/	-ctus	.	1B\	-di-	.	1g\	-di-	.
=43-	=43-	=43-	=43-	=43-	=43-	=43-	=43-	=43-	=43-	=43-	=43-
!	!	!	!	!	!	!	!	!	!LO:TX:t=P:problem:kreska pseudotaktowa	!	!
2rBB	.	.	1A\	.	.	2A/	-ct(us)	.	1c\	-ctus	.
*	*ij	*	*	*	*	*	*	*	*	*	*
2C/	et	.	.	.	.	2c\	.	.	.	.	.
*	*	*	*Xlig	*	*	*	*	*	*	*	*
!LO:TX:t=P:problem:♭ above	!	!	!	!	!	!	!	!	!	!	!
*	*	*	*lig	*	*	*	*	*	*	*	*
!	!	!	!	!	!	!LO:TX:t=P:problem:kreska pseudotaktowa	!	!	!	!	!
!	!	!	!LO:SIC:v:s=1B-	!	!	!LO:SIC:v:t=custos A	!	!	!	!	!
2BB-X/	be-	.	1B\	.	.	1d\	.	.	2r	.	.
!	!	!	!	!	!	!	!	!	!LO:TX:t=P:problem:kreska pseudotaktowa	!	!
2GG/	-ne-	.	.	.	.	.	.	.	2g\	fr-	.
!	!	!	!	!	!	!LO:PB:g=original	!	!	!	!	!
=44-	=44-	=44-	=44-	=44-	=44-	=44-	=44-	=44-	=44-	=44-	=44-
*	*	*	*	*	*	*	*ij	*	*	*	*
2AA/	-di-	.	1c\	.	.	2.A/	et	.	2e\	-ctu(us)	.
2.FF/	.	.	.	.	.	.	.	.	1a\	Ven-	.
.	.	.	.	.	.	4B\	.	.	.	.	.
*	*	*	*Xlig	*	*	*	*	*	*	*	*
*	*	*	*lig	*	*	*	*	*	*	*	*
!	!	!	!	!	!	!LO:TX:t=P:problem:kreska pseudotaktowa	!	!	!	!	!
.	.	.	1A\	.	.	1c\	be-	.	.	.	.
4GG/	.	.	.	.	.	.	.	.	.	.	.
4AA/	.	.	.	.	.	.	.	.	4g\	.	.
!LO:TX:t=P:problem:kreska pseudotaktowa	!	!	!	!	!	!	!	!	!LO:TX:t=P:problem:kreska pseudotaktowa	!	!
4BB/	.	.	.	.	.	.	.	.	4f\	.	.
=45-	=45-	=45-	=45-	=45-	=45-	=45-	=45-	=45-	=45-	=45-	=45-
!	!	!	!LO:TX:t=P:problem:kreska pseudotaktowa	!	!	!	!	!	!	!	!
1C/	.	.	1G/	.	.	2c\	-ne-	.	2.e\	.	.
.	.	.	.	.	.	4B\	.	.	.	.	.
!	!	!	!	!	!	!	!	!	!LO:TX:t=P:problem:kreska pseudotaktowa	!	!
.	.	.	.	.	.	4A/	.	.	4f\	.	.
*	*	*	*Xlig	*	*	*	*	*	*	*	*
*	*	*	*lig	*	*	*	*	*	*	*	*
!LO:TX:t=P:problem:kreska pseudotaktowa	!	!	!	!	!	!	!	!	!	!	!
1GG/	-ctus	.	1G/	fru-	.	2.B\	-di-	.	2g\	.	.
.	.	.	.	.	.	.	.	.	4f\	.	.
.	.	.	.	.	.	4c\	.	.	4e\	.	.
=46-	=46-	=46-	=46-	=46-	=46-	=46-	=46-	=46-	=46-	=46-	=46-
!	!	!	!	!	!	!LO:TX:t=P:problem:kreska pseudotaktowa	!	!	!	!	!
2r	.	.	1F/	.	.	1d\	-ctus	.	4d\	.	.
.	.	.	.	.	.	.	.	.	4e\	.	.
*	*Xij	*	*	*	*	*	*	*	*	*	*
2D/	fru-	.	.	.	.	.	.	.	1f\	.	.
*	*	*	*Xlig	*	*	*	*Xij	*	*	*	*
*	*	*	*lig	*	*	*	*	*	*	*	*
!LO:TX:t=P:problem:kreska pseudotaktowa	!	!	!	!	!	!	!	!	!	!	!
1C/	-ct(us)	.	1G/	.	.	0r	.	.	.	.	.
!	!	!	!	!	!	!	!	!	!LO:TX:t=P:problem:kreska pseudotaktowa	!	!
.	.	.	.	.	.	.	.	.	2e\	.	.
=47-	=47-	=47-	=47-	=47-	=47-	=47-	=47-	=47-	=47-	=47-	=47-
!	!	!	!LO:SIC:v:t=custos F	!	!	!	!	!	!	!	!
2.F\	Ven-	.	1A\	.	.	.	.	.	1.f\	.	.
4E\	.	.	.	.	.	.	.	.	.	.	.
*	*	*	*Xlig	*	*	*	*	*	*	*	*
!	!	!	!LO:LB:g=original	!	!	!	!	!	!	!	!
*	*	*	*lig	*	*	*	*	*	*	*	*
4D/	.	.	1F/	-ctus	.	2r	.	.	.	.	.
!LO:SIC:v:t=custos D	!	!	!	!	!	!	!	!	!	!	!
4C/	.	.	.	.	.	.	.	.	.	.	.
!LO:LB:g=original	!	!	!	!	!	!	!	!	!	!	!
!LO:TX:t=P:problem:kreska pseudotaktowa	!	!	!	!	!	!	!	!	!	!	!
2D/	.	.	.	.	.	1d\	fru-	.	2d\	.	.
=48-	=48-	=48-	=48-	=48-	=48-	=48-	=48-	=48-	=48-	=48-	=48-
!	!	!	!	!	!	!	!	!	!LO:TX:t=P:problem:kreska pseudotaktowa	!	!
1AA/	-tris	.	1E/	.	.	.	.	.	1e\	-tris	.
!	!	!	!	!	!	!LO:TX:t=P:problem:kreska pseudotaktowa	!	!	!	!	!
.	.	.	.	.	.	2c\	.	.	.	.	.
*	*	*	*Xlig	*	*	*	*	*	*	*	*
!	!	!	!LO:TX:t=P:problem:kreska pseudotaktowa	!	!	!	!	!	!	!	!
2rBB	.	.	1D/	.	.	2d\	-ct(us)	.	2r	.	.
*	*ij	*	*	*	*	*	*	*	*	*ij	*
!LO:TX:t=P:problem:kreska pseudotaktowa	!	!	!	!	!	!	!	!	!	!	!
2D/	fru-	.	.	.	.	2A/	.	.	2f\	fru-	.
=49-	=49-	=49-	=49-	=49-	=49-	=49-	=49-	=49-	=49-	=49-	=49-
*	*	*	*lig	*	*	*	*	*	*	*	*
2GG/	-ctus	.	1D/	Ven-	.	2B\	Ven-	.	2g\	-ctus	.
!	!	!	!	!	!	!	!	!	!LO:TX:t=P:problem:kreska pseudotaktowa	!	!
2D/	.	.	.	.	.	4A\	.	.	2a\	.	.
!	!	!	!	!	!	!LO:TX:t=P:problem:kreska pseudotaktowa	!	!	!	!	!
.	.	.	.	.	.	4B\	.	.	.	.	.
2C/	Ven-	.	1E/	.	.	2c\	-tris	.	1g\	Ven-	.
2E\	tris	.	.	.	.	4B\	tu-	.	.	.	.
.	.	.	.	.	.	4c\	.	.	.	.	.
*	*Xij	*	*Xlig	*	*	*	*	*	*	*	*
=50-	=50-	=50-	=50-	=50-	=50-	=50-	=50-	=50-	=50-	=50-	=50-
*	*	*	*lig	*	*	*	*	*	*	*	*
!	!	!	!	!	!	!	!	!	!LO:TX:t=P:problem:kreska pseudotaktowa	!	!
1D\	tu-	.	1F/	.	.	1d\	.	.	1f\	-tris	.
!LO:TX:t=P:problem:kreska pseudotaktowa	!	!	!	!	!	!LO:TX:t=P:problem:kreska pseudotaktowa	!	!	!	!	!
1GG/	-i	.	1G/	.	.	1B\	.	.	2d\	fru-	.
!	!	!	!	!	!	!	!	!	!LO:TX:t=P:problem:kreska pseudotaktowa	!	!
.	.	.	.	.	.	.	.	.	2g\	-ctus	.
*	*	*	*Xlig	*	*	*	*	*	*	*	*
=51-	=51-	=51-	=51-	=51-	=51-	=51-	=51-	=51-	=51-	=51-	=51-
*	*	*	*lig	*	*	*	*	*	*	*	*
2rBB	.	.	1F/	-tris	.	2c\	-i	.	2.a\	Ven-	.
*	*	*	*	*	*	*	*ij	*	*	*	*
2D/	Ven-	.	.	.	.	2.d\	fru-	.	.	.	.
.	.	.	.	.	.	.	.	.	4g\	.	.
2.F\	.	.	1A\	.	.	.	.	.	4f\	.	.
.	.	.	.	.	.	4A/	.	.	4e\	.	.
.	.	.	.	.	.	1d\	-ctus	.	2.f\	.	.
!LO:TX:t=P:problem:kreska pseudotaktowa	!	!	!	!	!	!	!	!	!	!	!
4E\	.	.	.	.	.	.	.	.	.	.	.
*	*	*	*Xlig	*	*	*	*	*	*	*	*
=52-	=52-	=52-	=52-	=52-	=52-	=52-	=52-	=52-	=52-	=52-	=52-
*	*	*	*lig	*	*	*	*	*	*	*	*
4D/	.	.	1F/	.	.	.	.	.	.	.	.
!	!	!	!	!	!	!	!	!	!LO:TX:t=P:problem:kreska pseudotaktowa	!	!
!	!	!	!	!	!	!	!	!	!LO:SIC:v:t=custos d	!	!
4C/	.	.	.	.	.	.	.	.	4e\	.	.
!	!	!	!	!	!	!	!	!	!LO:LB:g=original	!	!
!	!	!	!	!	!	!LO:TX:t=P:problem:kreska pseudotaktowa	!	!	!	!	!
2D/	.	.	.	.	.	2A/	.	.	4d\	.	.
!	!	!	!	!	!	!	!	!	!LO:TX:t=P:problem:kreska pseudotaktowa	!	!
.	.	.	.	.	.	.	.	.	4c/	.	.
!	!	!	!LO:TX:t=P:problem:kreska pseudotaktowa	!	!	!	!	!	!	!	!
2GG/	-tris	.	1G/	.	.	2B\	Ven-	.	2d\	.	.
!LO:TX:t=P:problem:kreska pseudotaktowa	!	!	!	!	!	!	!	!	!	!	!
[y2C/	.	.	.	.	.	1c\	.	.	4c\	.	.
!	!	!	!	!	!	!	!	!	!LO:TX:t=P:problem:kreska pseudotaktowa	!	!
.	.	.	.	.	.	.	.	.	4d\	.	.
*	*	*	*Xlig	*	*	*	*	*	*	*	*
=53-	=53-	=53-	=53-	=53-	=53-	=53-	=53-	=53-	=53-	=53-	=53-
*	*	*	*lig	*	*	*	*	*	*	*	*
!LO:N:xstem:cue	!	!	!	!	!	!	!	!	!	!	!
4C/]	.	.	1G/	tu-	.	.	.	.	4e\	.	.
4D/	.	.	.	.	.	.	.	.	4f\	.	.
2E\	tu-	.	.	.	.	4B\	tris	.	1g\	-tris	.
.	.	.	.	.	.	4c\	.	.	.	.	.
!LO:TX:t=P:problem:kreska pseudotaktowa	!	!	!	!	!	!	!	!	!	!	!
1D\	-i	.	1A\	.	.	1d\	tu-	.	.	.	.
*	*	*	*	*	*	*	*	*	*	*Xij	*
!	!	!	!	!	!	!	!	!	!LO:TX:t=P:problem:kreska pseudotaktowa	!	!
.	.	.	.	.	.	.	.	.	2f\	tu-	.
*	*	*	*Xlig	*	*	*	*	*	*	*	*
=54-	=54-	=54-	=54-	=54-	=54-	=54-	=54-	=54-	=54-	=54-	=54-
!	!	!	!LO:TX:t=P:problem:kreska pseudotaktowa	!	!	!	!	!	!LO:TX:t=P:problem:kreska pseudotaktowa	!	!
2E\	.	.	0G/	-i	.	2B\	-i	.	0g\	-i	.
!	!	!	!	!	!	!LO:TX:t=P:problem:kreska pseudotaktowa	!	!	!	!	!
*	*ij	*	*	*	*	*	*	*	*	*	*
2C/	Ven-	.	.	.	.	2r	.	.	.	.	.
2GG/	-tris	.	.	.	.	2rc	.	.	.	.	.
!LO:TX:t=P:problem:kreska pseudotaktowa	!	!	!	!	!	!	!	!	!	!	!
[y2GG/	tu-	.	.	.	.	2d\	fru-	.	.	.	.
=55-	=55-	=55-	=55-	=55-	=55-	=55-	=55-	=55-	=55-	=55-	=55-
!LO:N:xstem:cue	!	!	!	!	!	!	!	!	!	!	!
4GG/]	.	.	0G/	Ven-	Al-	2B\	.	.	2r	.	.
4AA/	.	.	.	.	.	.	.	.	.	.	.
!LO:TX:t=P:problem:kreska pseudotaktowa	!	!	!	!	!	!LO:TX:t=P:problem:kreska pseudotaktowa	!	!	!LO:TX:t=P:problem:kreska pseudotaktowa	!	!
2BB/	.	.	.	.	.	2G/	.	.	2g\	fru-	Al-
1C/	.	.	.	.	.	2g\	-ctus	Al-	2e\	-ct(us)	-le-
!	!	!	!	!	!	!	!	!	!LO:TX:t=P:problem:kreska pseudotaktowa	!	!
.	.	.	.	.	.	2e\	.	-le-	2c/	.	.
=56-	=56-	=56-	=56-	=56-	=56-	=56-	=56-	=56-	=56-	=56-	=56-
2GG/	.	.	0G/	-tris	-le-	4d\	Ven-	-lu-	2g\	Ven-	-lu-
.	.	.	.	.	.	4c\	.	.	.	.	.
!LO:TX:t=P:problem:kreska pseudotaktowa	!	!	!	!	!	!	!	!	!	!	!
2G\	-i	.	.	.	.	4B\	.	-ia	2g\	-tris	-ia
!	!	!	!	!	!	!LO:TX:t=P:problem:kreska pseudotaktowa	!	!	!	!	!
.	.	.	.	.	.	4A/	.	.	.	.	.
*	*Xij	*	*	*	*	*	*	*ij	*	*	*ij
2E\	fru-	.	.	.	.	2G/	.	A-	2c/	tu-	Al-
!	!	!	!	!	!	!	!	!	!LO:TX:t=P:problem:kreska pseudotaktowa	!	!
2C/	.	.	.	.	.	1c\	.	.	2e\	.	.
=57-	=57-	=57-	=57-	=57-	=57-	=57-	=57-	=57-	=57-	=57-	=57-
!LO:TX:t=P:problem:kreska pseudotaktowa	!	!	!	!	!	!	!	!	!	!	!
1G\	-ct(us)	.	0G/	tu-	-lu-	.	.	.	2d\	-i	-le-
*	*	*	*	*	*	*	*	*	*	*ij	*
.	.	.	.	.	.	2B\	-tris	-le-	1g\	Ven-	.
4C/	Ven-	Al-	.	.	.	1c\	tu-	-lu-	.	.	.
4D/	.	.	.	.	.	.	.	.	.	.	.
4E\	-tris	-le-	.	.	.	.	.	.	4f\	-tris	.
!LO:TX:t=P:problem:kreska pseudotaktowa	!	!	!	!	!	!	!	!	!LO:TX:t=P:problem:kreska pseudotaktowa	!	!
4F\	.	.	.	.	.	.	.	.	4e\	.	.
=58-	=58-	=58-	=58-	=58-	=58-	=58-	=58-	=58-	=58-	=58-	=58-
2G\	.	.	0.G/	-i	-ia	0.B\;	-i	-ia	1d\	tu-	-lu-
4C/	tu-	-lu-	.	.	.	.	.	.	.	.	.
8BB/L	.	.	.	.	.	.	.	.	.	.	.
8AA/J	.	.	.	.	.	.	.	.	.	.	.
0GG/;	-i	-ia.	.	.	.	.	.	.	0g\;<	-i	-ia
*	*	*	*	*	*	*	*	*	*	*Xij	*
=-	=-	=-	=-	=-	=-	=-	=-	=-	=-	=-	=-
*-	*-	*-	*-	*-	*-	*-	*-	*-	*-	*-	*-
!!!system-decoration: [(s1,s2,s3,s4)]
!!!RDF**kern: > = above
!!!RDF**kern: < = below
!!!EED: Leszek Kubiak
!!!EST: 2021-03-08
!!!ENC: Andrzej Kubiczek
!!!END: 2021-02-23
